X:4
T:The Water is Wide
C:Traditional
C:Arrangement by R.S. Doiel and Mark Doiel
N:Irish and American. Possibly derived from 
N:an old English tune named "O Waly, Waly"
N:There is a very similar version of this tune called
N:Van Diemen's Land on U2's Rattle and Hum album.
N:The words of that version are credited to the Edge
N:but no music credit given. 
N:Thanks to Dan Mulligan for the info about "O Waly, Waly"
M:C
L:1/4
Q:1/4=60
K:G
D G A | "G" B4- | B A G E | "G" D4- | D D G F |
"G" G4- | G "D" G/A/ B c | A4- | A A B c |
"G" d4- | d c B A | "G" B4- | B A G E |
"G" D4- |  D "D7" G G F | "G" G4- | G ||
D G A | "G" B4- | B A G E | "G" D4- | D G G F |
"G" G4- | G "D" G/A/ B c/B/ | A4- | A "G" G B d |
"G" e4- | e d e g | "G" g3 e | "G" d2 G G |
"G" A B3- | B "D7" G G A | "G"G4- | G |]


